X:1
T:He Touched Me and Made Me Whole
T:Thomas Sullivan, 1898
T:He Touched Me and Made Me Whole
T:Public Domain
T:Public Domain
T:Public Domain
C:Thomas Sullivan, 1898
Z:Public Domain
%%score ( 1 2 ) ( 3 4 )
L:1/8
M:6/8
K:C
V:1 treble 
V:2 treble 
V:3 bass 
V:4 bass 
V:1
 ([EG]/[EG]/) | [EG][FA][FB] [Ec]>[DB][Ec] | [Fd][FA][FA] [Fd]2 [Fc] | %3
w: 1.~To~the *|feet of my Sav- ior in|trem- bling and fear, A|
w: 2.~I *|knew not the ten- der com-|pass- ion and love That|
w: 3.~“My *|grace is suf- fi- cient,” I|heard His dear voice, “O|
w: 4.~O *|Je- sus, dear Je- sus, Thy|name I a- dore, For|
w: 5.~O *|come, my dear bro- ther, He’s|wait- ing for you, Your|
 [FB][B,D][CE] [DF][FB]>[FA] | [EG]3- [EG]2 [EG] | [EG][FA][FB] [Ec]2 [DB]/[Ec]/ | %6
w: pen- i- tent sin- ner I|came; * He|saw, and in mer- cy, He|
w: Je- sus, my Sav- ior, had|shown; * Tho’|bur- dened with grief, His dear|
w: come and find rest for your|soul; * From|sin you to save, My life|
w: sav- ing and keep- ing my|soul * Thy|prais- es I’ll sing, my re-|
w: sin- bur- dened heart to con-|sole; * Your|wea- ry head ret on His|
 [Fd][FA][FA] [Fd]2 [Fc][FB]>[FA][FG][FG][FA][FB] | [Ec]3- [Ec]2 ||"^Refrain" [EG] | %9
w: bade me draw near; All glo- ry and praise to His|name. *||
w: hand brought re- lief, He healed me and called me His|own. *|He|
w: free- ly I gave; I died that you might be made|whole.” *||
w: deem- er and king, Thy dear, lov- ing hand made me|whole. *||
w: dear, lov- ing breast; He suf- fered and died for your|soul. *||
 [EG][CE][DF] [EG][Gc]>[GB] | [FA]3- [FA]2 [FA]/[FA]/ | [FA]F[FG] [FA][Fd]>[Fc] | %12
w: |||
w: touched me and thus made me|whole; * Bring- ing|com- fort and rest to my|
w: |||
w: |||
w: |||
 [F-B]3 [FA]2 [FG] | [EG][FA][FB] [Ec]2 [DB]/[Ec]/ | [Fd][FA][FA] [^Fd]2 [Fc]/[Fc]/ | %15
w: |||
w: O * glad|hap- py day, all my sins|rolled a- way! For He touched|
w: |||
w: |||
w: |||
 [FB][FA][FG] [FG][FA][FB] | EEF [Ec]2 |] %17
w: ||
w: me and thus made me whole.||
w: ||
w: ||
w: ||
V:2
 x | x6 | x6 | x6 | x6 | x6 | x12 | x5 || x | x6 | x6 | x F x4 | x6 | x6 | x6 | x6 | c3- x2 |] %17
w: |||||||||||||||||
w: |||||||||||soul;||||||
V:3
 ([C,C]/[C,C]/) | [C,C][C,C][C,G,] [C,G,]>[C,C][C,C] | [F,A,][F,A,][F,A,] [F,A,]2 [F,D] | %3
w: ~ *|~ ~ ~ ~ ~ ~|~ ~ ~ ~ ~|
 [G,D]G,G, G,[G,D]>[G,B,] | [C,C]3- [C,C]2 [C,C] | [C,C][C,B,][C,A,] [C,G,]2 [C,G,]/[C,G,]/ | %6
w: ~ ~ ~ ~ ~ ~|~ * ~|~ ~ ~ ~ ~ ~|
 [F,A,][F,A,][F,A,] [F,A,]2 [F,D][G,D]>[G,C][G,B,][G,B,][G,C][G,D] | [C,C]3- [C,C]2 || [C,C] | %9
w: ~ ~ ~ ~ ~ ~ ~ ~ ~ He touched|me, *|He|
 [C,C][C,G,][C,G,] [C,C][E,C]>[E,C] | [F,C][F,C][F,C] [F,C]2 [F,C]/[F,C]/ | %11
w: touched me and thus made me|whole, ~ ~ ~ ~ ~|
 [F,C][F,A,][F,_B,] [F,C][F,A,]>[F,D] | [G,D][G,D][G,D] [G,C]2 [G,B,] | %13
w: ~ bring- ing rest to my|soul; * * * *|
 [C,C][C,B,][C,A,] [C,G,]2 [C,G,]/[C,G,]/ | [F,A,][F,A,][F,A,] [D,A,]2 [D,D]/[D,D]/ | %15
w: ||
 [G,D][G,C][G,B,] [G,B,][G,C][G,D] | CG,A, [C,G,]2 |] %17
w: ||
V:4
 x | x6 | x6 | x G,G, G, x2 | x6 | x6 | x12 | x5 || x | x6 | x6 | x6 | x6 | x6 | x6 | x6 | %16
w: |||~ ~ ~|||||||||||||
 C,3- x2 |] %17
w: |

